images/edu.svg

<svg height="250" viewBox="0 0 250 250" width="250" xmlns="http://www.w3.org/2000/svg"><path d="m250 125c0 69.035156-55.964844 125-125 125s-125-55.964844-125-125 55.964844-125 125-125 125 55.964844 125 125zm0 0" fill="#ffbc36"/><path d="m38.320312 157.5h42.265626v-11.71875h-26.953126v-15.625h20.585938v-11.328125h-20.585938v-15.3125h26.953126v-11.71875h-42.265626zm101.171876-56.367188c-3.042969-2.964843-6.640626-5.300781-10.585938-6.875-4.453125-1.6875-9.183594-2.523437-13.945312-2.460937h-25.703126v65.703125h25.507813c4.828125.089844 9.625-.746094 14.140625-2.460938 4.023438-1.535156 7.691406-3.875 10.78125-6.875 2.980469-2.964843 5.332031-6.496093 6.914062-10.390624 3.28125-8.441407 3.28125-17.808594 0-26.25-1.625-3.917969-4.046874-7.457032-7.109374-10.390626zm-7.5 32.304688c-.761719 2.441406-1.996094 4.710938-3.632813 6.679688-1.585937 1.8125-3.5625 3.242187-5.78125 4.179687-2.476563 1.019531-5.132813 1.523437-7.8125 1.484375h-10.195313v-42.265625h10.195313c2.679687-.039063 5.335937.464844 7.8125 1.484375 2.242187.984375 4.222656 2.484375 5.78125 4.375 1.644531 1.949219 2.878906 4.207031 3.632813 6.640625 1.664062 5.753906 1.664062 11.863281 0 17.617187zm64.453124-41.640625v39.0625c.035157 2.101563-.253906 4.199219-.859374 6.210937-.527344 1.691407-1.390626 3.257813-2.539063 4.609376-1.132813 1.257812-2.535156 2.246093-4.101563 2.890624-3.519531 1.355469-7.417968 1.355469-10.9375 0-1.503906-.671874-2.839843-1.671874-3.90625-2.929687-1.253906-1.425781-2.1875-3.101563-2.734374-4.921875-.605469-2.011719-.894532-4.109375-.859376-6.210938v-39.0625h-15.273437v39.0625c-.035156 3.785157.625 7.546876 1.953125 11.09375 1.234375 3.261719 3.136719 6.226563 5.585938 8.710938 2.578124 2.601562 5.679687 4.628906 9.101562 5.9375 7.582031 2.679688 15.855469 2.679688 23.4375 0 3.324219-1.261719 6.355469-3.191406 8.90625-5.664062 2.449219-2.484376 4.351562-5.449219 5.585938-8.710938 1.359374-3.539062 2.035156-7.304688 1.992187-11.09375v-39.0625zm-71.445312-91.796875c-69.035156 0-125 55.964844-125 125s55.964844 125 125 125 125-55.964844 125-125-55.964844-125-125-125zm0 234.375c-60.40625 0-109.375-48.96875-109.375-109.375s48.96875-109.375 109.375-109.375 109.375 48.96875 109.375 109.375-48.96875 109.375-109.375 109.375zm0 0" fill="#ca9729"/></svg>

<svg xmlns="http://www.w3.org/2000/svg" xmlns:xlink="http://www.w3.org/1999/xlink" width="250px" height="250px" viewBox="0 0 250 250" version="1.1">
<g id="surface1">
<path style=" stroke:none;fill-rule:nonzero;fill:rgb(100%,73.725492%,21.176471%);fill-opacity:1;" d="M 250 125 C 250 194.035156 194.035156 250 125 250 C 55.964844 250 0 194.035156 0 125 C 0 55.964844 55.964844 0 125 0 C 194.035156 0 250 55.964844 250 125 Z M 250 125 "/>
<path style=" stroke:none;fill-rule:nonzero;fill:rgb(79.215688%,59.215689%,16.078432%);fill-opacity:1;" d="M 38.320312 157.5 L 80.585938 157.5 L 80.585938 145.78125 L 53.632812 145.78125 L 53.632812 130.15625 L 74.21875 130.15625 L 74.21875 118.828125 L 53.632812 118.828125 L 53.632812 103.515625 L 80.585938 103.515625 L 80.585938 91.796875 L 38.320312 91.796875 Z M 139.492188 101.132812 C 136.449219 98.167969 132.851562 95.832031 128.90625 94.257812 C 124.453125 92.570312 119.722656 91.734375 114.960938 91.796875 L 89.257812 91.796875 L 89.257812 157.5 L 114.765625 157.5 C 119.59375 157.589844 124.390625 156.753906 128.90625 155.039062 C 132.929688 153.503906 136.597656 151.164062 139.6875 148.164062 C 142.667969 145.199219 145.019531 141.667969 146.601562 137.773438 C 149.882812 129.332031 149.882812 119.964844 146.601562 111.523438 C 144.976562 107.605469 142.554688 104.066406 139.492188 101.132812 Z M 131.992188 133.4375 C 131.230469 135.878906 129.996094 138.148438 128.359375 140.117188 C 126.773438 141.929688 124.796875 143.359375 122.578125 144.296875 C 120.101562 145.316406 117.445312 145.820312 114.765625 145.78125 L 104.570312 145.78125 L 104.570312 103.515625 L 114.765625 103.515625 C 117.445312 103.476562 120.101562 103.980469 122.578125 105 C 124.820312 105.984375 126.800781 107.484375 128.359375 109.375 C 130.003906 111.324219 131.238281 113.582031 131.992188 116.015625 C 133.65625 121.769531 133.65625 127.878906 131.992188 133.632812 Z M 196.445312 91.796875 L 196.445312 130.859375 C 196.480469 132.960938 196.191406 135.058594 195.585938 137.070312 C 195.058594 138.761719 194.195312 140.328125 193.046875 141.679688 C 191.914062 142.9375 190.511719 143.925781 188.945312 144.570312 C 185.425781 145.925781 181.527344 145.925781 178.007812 144.570312 C 176.503906 143.898438 175.167969 142.898438 174.101562 141.640625 C 172.847656 140.214844 171.914062 138.539062 171.367188 136.71875 C 170.761719 134.707031 170.472656 132.609375 170.507812 130.507812 L 170.507812 91.445312 L 155.234375 91.445312 L 155.234375 130.507812 C 155.199219 134.292969 155.859375 138.054688 157.1875 141.601562 C 158.421875 144.863281 160.324219 147.828125 162.773438 150.3125 C 165.351562 152.914062 168.453125 154.941406 171.875 156.25 C 179.457031 158.929688 187.730469 158.929688 195.3125 156.25 C 198.636719 154.988281 201.667969 153.058594 204.21875 150.585938 C 206.667969 148.101562 208.570312 145.136719 209.804688 141.875 C 211.164062 138.335938 211.839844 134.570312 211.796875 130.78125 L 211.796875 91.71875 Z M 125 0 C 55.964844 0 0 55.964844 0 125 C 0 194.035156 55.964844 250 125 250 C 194.035156 250 250 194.035156 250 125 C 250 55.964844 194.035156 0 125 0 Z M 125 234.375 C 64.59375 234.375 15.625 185.40625 15.625 125 C 15.625 64.59375 64.59375 15.625 125 15.625 C 185.40625 15.625 234.375 64.59375 234.375 125 C 234.375 185.40625 185.40625 234.375 125 234.375 Z M 125 234.375 "/>
</g>
</svg>
